X:1172
T:Prince of Saxe Cobourg's Favourite March.
M:C
L:1/8
Q:1/2=72
P:ABA % Aird prints "Da Capo il Majore" at the end
I: :: :: :: ::
Z:Jack Campin * www.campin.me.uk * 2009
K:D
P:A
"_Forte"d2    z D   D2 D2|D3   F A>F G>E|\
        D>A   F>d   A2 A2|A>ce>g f2  z2 |
"_Pia." e3      e   a^gfe|e3   e fe``dc |\
        Bc {e}dc/B/ e2 E2|A2 A>A A2  z2:|
 z2 .a2  z2 .f2 | g<e   c<A   A2       ~G2   |\
 F2  d>F G>E F`D| A2    A>A   A2 "_Pia."e2   |
.f2 .f2 .f2 .f.a|(g4          e2)       e2   |\
.f2 .f2 .f2 .f.a|(g4          e2)       fa   |\
(g4      e2) f`a| g4          e2        z2   |
 d2  zD  D2  D2 | D2 {g}fe/f/ g2     {b}ag/a/|\
 b2  ge  d2  c2 | d2    d>d   d2       Hz2  :|
P:B
K:D Minor
"^Minore"{de}f3   e  d2  d2|{fg}a3      g   f2    f2   |\
            .e2 .f2 .e2 .f2|    e2    e>e   e2    z2   |
         {de}f3   e  d2  d2|{Bc}d3      c   B2    B2   |\
             c2  dB  A2  G2|    F2    f>f   f2    z2  :|
        {^fg}a3   g ^f2  f2|    g2 {b}ag/a/ b2    z2   |\
        {e=f}g3   f  e2  e2|    f2 {a}gf/g/ a2    z2   |
         {de}f3   e  d2 ^c2|    d2 {f}ed/e/ f2 {a}gf/g/|\
             a2  bg  f2  e2|    d2    d'>d' d'2   z2  :|

